src/lib/packages/icons/src/assets/filled/home-search.svg

<svg width="24" height="24" viewBox="0 0 24 24" fill="none" xmlns="http://www.w3.org/2000/svg">
<path fill-rule="evenodd" clip-rule="evenodd" d="M13.583 12.917C13.583 14.112 12.611 15.084 11.417 15.084C10.222 15.084 9.25 14.112 9.25 12.917C9.25 11.722 10.222 10.75 11.417 10.75C12.611 10.75 13.583 11.722 13.583 12.917ZM21 11.651V18C21 20 20 21 18 21H6C4 21 3 20 3 18V11.651C3 9.65302 3.52305 9.34608 4.43005 8.58608L10.394 3.58498C11.323 2.80598 12.6781 2.80598 13.6071 3.58498L19.571 8.58608C20.477 9.34608 21 9.65202 21 11.651ZM16.03 16.47L14.48 14.9201C14.858 14.3431 15.082 13.656 15.082 12.916C15.082 10.895 13.437 9.24904 11.416 9.24904C9.39402 9.24904 7.74902 10.894 7.74902 12.916C7.74902 14.938 9.39402 16.583 11.416 16.583C12.156 16.583 12.8429 16.359 13.4189 15.98L14.968 17.5291C15.114 17.6751 15.306 17.749 15.498 17.749C15.69 17.749 15.882 17.6761 16.028 17.5291C16.323 17.2371 16.323 16.763 16.03 16.47Z" fill="currentColor"/>
</svg>

<svg xmlns="http://www.w3.org/2000/svg" width="24" height="24" fill="none"><path fill="currentColor" fill-rule="evenodd" d="M13.583 12.917a2.17 2.17 0 0 1-2.166 2.167 2.17 2.17 0 0 1-2.167-2.167 2.17 2.17 0 0 1 2.167-2.167 2.17 2.17 0 0 1 2.166 2.167ZM21 11.651V18c0 2-1 3-3 3H6c-2 0-3-1-3-3v-6.349c0-1.998.523-2.305 1.43-3.065l5.964-5.001a2.5 2.5 0 0 1 3.213 0l5.964 5.001c.906.76 1.429 1.066 1.429 3.065Zm-4.97 4.819-1.55-1.55a3.645 3.645 0 0 0 .602-2.004 3.672 3.672 0 0 0-3.666-3.667 3.671 3.671 0 0 0-3.667 3.667 3.671 3.671 0 0 0 3.667 3.667c.74 0 1.427-.224 2.003-.603l1.549 1.55a.748.748 0 0 0 1.06 0 .746.746 0 0 0 .002-1.06Z" clip-rule="evenodd"/></svg>
